static/logos/ms_xbox-glyph-color.svg

<svg width="32" height="32" viewBox="0 0 32 32" fill="none" xmlns="http://www.w3.org/2000/svg">
<circle opacity="0.852" cx="16" cy="16" r="14" fill="url(#paint0_radial_1261_313)"/>
<path d="M6.75144 26.5334C6.73233 26.5194 6.71276 26.5017 6.69318 26.4802C6.33079 26.1505 5.74051 25.6305 5.12368 24.8445C4.59096 23.689 4.89293 21.748 6.20392 19.0076C8.05363 15.141 11.0132 11.2151 12.2266 9.82256C11.8813 9.43738 10.8119 8.38259 9.29665 7.24483C7.78136 6.10708 6.67744 5.99054 6.2927 6.05967C6.64785 5.67449 7.47652 4.94858 8.17202 4.4597C10.3266 3.39305 14.3082 5.19549 16.0148 6.22263V13.2892C11.6643 16.6373 7.6393 21.8075 6.82542 23.8223C6.20424 25.3601 6.44981 26.2129 6.69318 26.4802C6.71331 26.4985 6.73275 26.5162 6.75144 26.5334Z" fill="url(#paint1_linear_1261_313)"/>
<path d="M6.75144 26.533C6.73233 26.519 6.71276 26.5013 6.69318 26.4798C6.33079 26.1501 5.74051 25.6301 5.12368 24.8441C4.59096 23.6886 4.89293 21.7477 6.20392 19.0072C8.35139 14.5182 12.2266 9.8222 12.2266 9.8222C12.2266 9.8222 12.9185 11.5404 14.4889 14.5182C10.4445 18.1034 7.6393 21.8072 6.82542 23.8219C6.20424 25.3597 6.4498 26.2125 6.69318 26.4798C6.71331 26.4981 6.73275 26.5159 6.75144 26.533Z" fill="url(#paint2_linear_1261_313)"/>
<path d="M25.2782 26.5334C25.2973 26.5194 25.3169 26.5017 25.3365 26.4802C25.6989 26.1505 26.2891 25.6305 26.906 24.8445C27.4387 23.689 27.1367 21.748 25.8257 19.0076C23.976 15.141 21.0165 11.2151 19.8031 9.82256C20.1483 9.43738 21.2177 8.38259 22.733 7.24483C24.2483 6.10708 25.3522 5.99054 25.737 6.05967C25.3818 5.67449 24.5531 4.94858 23.8576 4.4597C21.7031 3.39305 17.7215 5.19549 16.0148 6.22263V13.2892C20.3654 16.6373 24.3904 21.8075 25.2042 23.8223C25.8254 25.3601 25.5799 26.2129 25.3365 26.4802C25.3164 26.4985 25.2969 26.5162 25.2782 26.5334Z" fill="url(#paint3_linear_1261_313)"/>
<path d="M25.2782 26.533C25.2973 26.519 25.3169 26.5013 25.3365 26.4798C25.6989 26.1501 26.2892 25.6301 26.906 24.8441C27.4387 23.6886 27.1367 21.7477 25.8257 19.0072C23.6783 14.5182 19.8031 9.8222 19.8031 9.8222C19.8031 9.8222 19.1111 11.5404 17.5408 14.5182C21.5852 18.1034 24.3904 21.8072 25.2042 23.8219C25.8254 25.3597 25.5799 26.2125 25.3365 26.4798C25.3164 26.4981 25.2969 26.5159 25.2782 26.533Z" fill="url(#paint4_linear_1261_313)"/>
<defs>
<radialGradient id="paint0_radial_1261_313" cx="0" cy="0" r="1" gradientUnits="userSpaceOnUse" gradientTransform="translate(16 14.5) rotate(90.0548) scale(15.5)">
<stop stop-color="#FAFAFA"/>
<stop offset="0.499976" stop-color="#EFEFEF"/>
<stop offset="0.828794" stop-color="#C0BEC0"/>
<stop offset="1" stop-color="#879288"/>
</radialGradient>
<linearGradient id="paint1_linear_1261_313" x1="12.9926" y1="4.72595" x2="13.2296" y2="12.7852" gradientUnits="userSpaceOnUse">
<stop stop-color="#008B00"/>
<stop offset="1" stop-color="#6CC329"/>
</linearGradient>
<linearGradient id="paint2_linear_1261_313" x1="10.1482" y1="12.6666" x2="12.8741" y2="16.4" gradientUnits="userSpaceOnUse">
<stop stop-color="#008C00"/>
<stop offset="1" stop-color="#48BF21"/>
</linearGradient>
<linearGradient id="paint3_linear_1261_313" x1="19.0371" y1="4.72595" x2="18.8" y2="12.7852" gradientUnits="userSpaceOnUse">
<stop stop-color="#008B00"/>
<stop offset="1" stop-color="#6CC329"/>
</linearGradient>
<linearGradient id="paint4_linear_1261_313" x1="21.8815" y1="12.6666" x2="19.1556" y2="16.4" gradientUnits="userSpaceOnUse">
<stop stop-color="#008C00"/>
<stop offset="1" stop-color="#48BF21"/>
</linearGradient>
</defs>
</svg>

<svg xmlns="http://www.w3.org/2000/svg" width="64" height="64" fill="none" viewBox="0 0 32 32"><circle cx="16" cy="16" r="14" fill="url(#a)" opacity=".852"/><path fill="url(#b)" d="M6.751 26.533a.4.4 0 0 1-.058-.053c-.362-.33-.952-.85-1.57-1.636-.532-1.155-.23-3.096 1.08-5.836 1.85-3.867 4.81-7.793 6.024-9.185-.346-.386-1.415-1.44-2.93-2.578S6.677 5.99 6.293 6.06c.355-.386 1.184-1.111 1.879-1.6 2.155-1.067 6.136.735 7.843 1.763v7.066c-4.35 3.348-8.376 8.519-9.19 10.533-.62 1.538-.375 2.39-.132 2.658z"/><path fill="url(#c)" d="M6.751 26.533a.4.4 0 0 1-.058-.053c-.362-.33-.952-.85-1.57-1.636-.532-1.155-.23-3.096 1.08-5.837 2.148-4.489 6.024-9.185 6.024-9.185s.691 1.718 2.262 4.696c-4.045 3.585-6.85 7.29-7.664 9.304-.62 1.538-.375 2.39-.132 2.658z"/><path fill="url(#d)" d="M25.278 26.533a.4.4 0 0 0 .059-.053c.362-.33.952-.85 1.569-1.636.533-1.155.23-3.096-1.08-5.836-1.85-3.867-4.81-7.793-6.023-9.185.345-.386 1.415-1.44 2.93-2.578s2.62-1.254 3.004-1.185c-.355-.386-1.184-1.111-1.88-1.6-2.154-1.067-6.135.735-7.842 1.763v7.066c4.35 3.348 8.375 8.519 9.19 10.533.62 1.538.375 2.39.132 2.658z"/><path fill="url(#e)" d="M25.278 26.533a.4.4 0 0 0 .059-.053c.362-.33.952-.85 1.569-1.636.533-1.155.23-3.096-1.08-5.837-2.148-4.489-6.023-9.185-6.023-9.185s-.692 1.718-2.262 4.696c4.044 3.585 6.85 7.29 7.663 9.304.621 1.538.376 2.39.133 2.658z"/><defs><linearGradient id="b" x1="12.993" x2="13.23" y1="4.726" y2="12.785" gradientUnits="userSpaceOnUse"><stop stop-color="#008B00"/><stop offset="1" stop-color="#6CC329"/></linearGradient><linearGradient id="c" x1="10.148" x2="12.874" y1="12.667" y2="16.4" gradientUnits="userSpaceOnUse"><stop stop-color="#008C00"/><stop offset="1" stop-color="#48BF21"/></linearGradient><linearGradient id="d" x1="19.037" x2="18.8" y1="4.726" y2="12.785" gradientUnits="userSpaceOnUse"><stop stop-color="#008B00"/><stop offset="1" stop-color="#6CC329"/></linearGradient><linearGradient id="e" x1="21.881" x2="19.156" y1="12.667" y2="16.4" gradientUnits="userSpaceOnUse"><stop stop-color="#008C00"/><stop offset="1" stop-color="#48BF21"/></linearGradient><radialGradient id="a" cx="0" cy="0" r="1" gradientTransform="rotate(90.055 .757 15.242)scale(15.5)" gradientUnits="userSpaceOnUse"><stop stop-color="#FAFAFA"/><stop offset=".5" stop-color="#EFEFEF"/><stop offset=".829" stop-color="#C0BEC0"/><stop offset="1" stop-color="#879288"/></radialGradient></defs></svg>
